src/assets/media/svg/sprite/show.svg

<svg width="24" height="24" viewBox="0 0 24 24" fill="none" xmlns="http://www.w3.org/2000/svg">
<path d="M22.7241 11.6615C22.5517 11.4154 18.2069 6 12 6C5.7931 6 1.44828 11.4154 1.27586 11.6615L1 12L1.27586 12.3385C1.44828 12.5846 5.7931 18 12 18C18.2069 18 22.5517 12.5846 22.7241 12.3385L23 12L22.7241 11.6615ZM12 15.5385C11.1816 15.5385 10.3816 15.3219 9.70109 14.9162C9.02061 14.5105 8.49024 13.9338 8.17705 13.2591C7.86386 12.5845 7.78191 11.8421 7.94158 11.1258C8.10124 10.4096 8.49534 9.75168 9.07404 9.2353C9.65274 8.71892 10.39 8.36726 11.1927 8.22479C11.9954 8.08232 12.8274 8.15544 13.5835 8.43491C14.3396 8.71437 14.9859 9.18762 15.4406 9.79482C15.8952 10.402 16.1379 11.1159 16.1379 11.8462C16.1379 12.8254 15.702 13.7646 14.926 14.457C14.1499 15.1495 13.0974 15.5385 12 15.5385Z" fill="black"/>
</svg>

<svg xmlns="http://www.w3.org/2000/svg" width="24" height="24" fill="none"><path fill="#000" d="M22.724 11.662C22.552 11.415 18.207 6 12 6S1.448 11.415 1.276 11.662L1 12l.276.338C1.448 12.586 5.793 18 12 18s10.552-5.415 10.724-5.661L23 12zM12 15.539a4.5 4.5 0 0 1-2.299-.623 3.8 3.8 0 0 1-1.524-1.657 3.32 3.32 0 0 1-.235-2.133 3.6 3.6 0 0 1 1.132-1.89 4.3 4.3 0 0 1 2.119-1.011 4.6 4.6 0 0 1 2.39.21c.757.28 1.403.753 1.858 1.36.454.607.697 1.32.697 2.051 0 .98-.436 1.919-1.212 2.611S13.097 15.539 12 15.539"/></svg>
